X: 11101
Q: "Slow and pathetically."
M: C
L: 1/8
K: Eb
(G2A2 B2)=B2 | c4 {g}f4 | (e4 ed) (fe) | d6 {c}B2 |\
(G2A2 B2)=B2 | c4 d4 | (e2 e/c/A/F/ D2) ~c>B | E4 z2G2 |\
(d4 dc) (B=A) | (=A4 G2)z2 | (d4 de) (dc) | (c4 B2) zd |\
(d4 cB) (=AG) | G4 F2z2 | (F4 FE) (DC) | (B,4 HB2) B2 |\
(G2A2 B2)=B2 |  c4 d4 | (e2 e/c/)(A/F/ D2) (c>B) | E4 z2zB |\


